svg/600/outlined/price_check-fill.svg

<svg xmlns="http://www.w3.org/2000/svg" width="48" height="48" viewBox="0 -960 960 960"><path d="M256.999-355.217v-51.218h-110v-73.566h220v-91.434H184.782q-14.826 0-26.304-10.978-11.479-10.978-11.479-26.805v-164q0-15.826 10.979-26.304 10.978-10.479 25.804-10.479h73.217v-51.217H330v51.217h110v73.566H220v91.434h182.782q15.827 0 26.522 10.479Q440-624.044 440-607.218v164q0 14.827-10.196 25.805-10.195 10.978-26.022 10.978H330v51.218h-73.001Zm307.219 249.044L388-282.956l53.87-53.305 122.348 122.348L799.13-448.261l53.871 53.305-288.783 288.783Z"/></svg>

<svg xmlns="http://www.w3.org/2000/svg" width="48" height="48" viewBox="0 -960 960 960"><path d="M257-355.22v-51.21H147V-480h220v-91.43H184.78q-14.82 0-26.3-10.98T147-609.22v-164q0-15.82 10.98-26.3t25.8-10.48H257v-51.22h73V-810h110v73.57H220V-645h182.78q15.83 0 26.52 10.48 10.7 10.48 10.7 27.3v164q0 14.83-10.2 25.81-10.19 10.98-26.02 10.98H330v51.21h-73Zm307.22 249.05L388-282.96l53.87-53.3 122.35 122.35 234.91-234.35 53.87 53.3-288.78 288.79Z"/></svg>
